dashboard/static/img/search.svg

<?xml version="1.0" encoding="UTF-8"?>
<svg width="18px" height="18px" viewBox="0 0 18 18" version="1.1" xmlns="http://www.w3.org/2000/svg" xmlns:xlink="http://www.w3.org/1999/xlink">
    <!-- Generator: Sketch 43.2 (39069) - http://www.bohemiancoding.com/sketch -->
    <title>icons / search-black</title>
    <desc>Created with Sketch.</desc>
    <defs></defs>
    <g id="Symbols" stroke="none" stroke-width="1" fill="none" fill-rule="evenodd">
        <g id="icons-/-search-black" fill="#000000">
            <path d="M17.8417969,17.1582031 C17.9472662,17.2636724 18,17.395507 18,17.5537109 C18,17.7119149 17.9472662,17.8437495 17.8417969,17.9492188 C17.7246088,18.0664068 17.5898445,18.125 17.4375,18.125 C17.2851555,18.125 17.1503912,18.0664068 17.0332031,17.9492188 L11.5839844,12.4648438 C10.9628875,13.0039089 10.2597696,13.4257797 9.47460938,13.7304688 C8.6894492,14.0351578 7.85742627,14.1875 6.97851562,14.1875 C6.00585451,14.1875 5.09180115,14.0029315 4.23632812,13.6337891 C3.3808551,13.2646466 2.63379226,12.763675 1.99511719,12.1308594 C1.35644212,11.4980437 0.855470566,10.7539105 0.4921875,9.8984375 C0.128904434,9.04296447 -0.052734375,8.12891111 -0.052734375,7.15625 C-0.052734375,6.18358889 0.128904434,5.26953553 0.4921875,4.4140625 C0.855470566,3.55858947 1.35644212,2.81445629 1.99511719,2.18164062 C2.63379226,1.54882496 3.3808551,1.04785341 4.23632812,0.678710938 C5.09180115,0.309568467 6.00585451,0.125 6.97851562,0.125 C7.93945793,0.125 8.84765197,0.309568467 9.703125,0.678710938 C10.558598,1.04785341 11.3056609,1.54882496 11.9443359,2.18164062 C12.583011,2.81445629 13.0869122,3.55858947 13.4560547,4.4140625 C13.8251972,5.26953553 14.0097656,6.18358889 14.0097656,7.15625 C14.0097656,8.01172303 13.8632827,8.82323835 13.5703125,9.59082031 C13.2773423,10.3584023 12.8789088,11.046872 12.375,11.65625 L17.8417969,17.1582031 Z M6.97851562,13.0800781 C7.78711342,13.0800781 8.55175421,12.9248062 9.27246094,12.6142578 C9.99316767,12.3037094 10.6201145,11.8789089 11.1533203,11.3398438 C11.6865261,10.8007786 12.1083969,10.1738317 12.4189453,9.45898438 C12.7294937,8.74413705 12.8847656,7.9765666 12.8847656,7.15625 C12.8847656,6.3359334 12.7294937,5.56836295 12.4189453,4.85351562 C12.1083969,4.1386683 11.6865261,3.51172145 11.1533203,2.97265625 C10.6201145,2.43359105 9.99316767,2.00879062 9.27246094,1.69824219 C8.55175421,1.38769376 7.78711342,1.23242188 6.97851562,1.23242188 C6.15819902,1.23242188 5.38769892,1.38769376 4.66699219,1.69824219 C3.94628546,2.00879062 3.3193386,2.43359105 2.78613281,2.97265625 C2.25292702,3.51172145 1.83105624,4.1386683 1.52050781,4.85351562 C1.20995938,5.56836295 1.0546875,6.3359334 1.0546875,7.15625 C1.0546875,7.9765666 1.20995938,8.74413705 1.52050781,9.45898438 C1.83105624,10.1738317 2.25292702,10.8007786 2.78613281,11.3398438 C3.3193386,11.8789089 3.94628546,12.3037094 4.66699219,12.6142578 C5.38769892,12.9248062 6.15819902,13.0800781 6.97851562,13.0800781 Z" id="magnifier---simple-line-icons"></path>
        </g>
    </g>
</svg>

<svg width="18" height="18" xmlns="http://www.w3.org/2000/svg"><path d="M17.842 17.158a.537.537 0 0 1 .158.396c0 .158-.053.29-.158.395a.556.556 0 0 1-.404.176.556.556 0 0 1-.405-.176l-5.449-5.484c-.621.539-1.324.96-2.11 1.265a6.838 6.838 0 0 1-2.495.457 6.847 6.847 0 0 1-2.743-.553 7.208 7.208 0 0 1-2.24-1.503A6.909 6.909 0 0 1 .491 9.898a6.942 6.942 0 0 1-.545-2.742c0-.972.182-1.886.545-2.742.363-.855.864-1.6 1.503-2.232A7.208 7.208 0 0 1 4.236.679 6.847 6.847 0 0 1 6.98.125c.96 0 1.869.185 2.724.554.856.369 1.603.87 2.241 1.503a7.027 7.027 0 0 1 1.512 2.232c.37.856.554 1.77.554 2.742 0 .856-.147 1.667-.44 2.435a7.299 7.299 0 0 1-1.195 2.065l5.467 5.502zM6.979 13.08c.808 0 1.573-.155 2.293-.466a5.9 5.9 0 0 0 1.881-1.274 6.11 6.11 0 0 0 1.266-1.881c.31-.715.466-1.482.466-2.303 0-.82-.156-1.588-.466-2.302a6.11 6.11 0 0 0-1.266-1.881 5.9 5.9 0 0 0-1.88-1.275 5.735 5.735 0 0 0-2.294-.466c-.82 0-1.591.156-2.312.466a5.9 5.9 0 0 0-1.88 1.275 6.11 6.11 0 0 0-1.266 1.88 5.716 5.716 0 0 0-.466 2.303c0 .82.155 1.588.466 2.303a6.11 6.11 0 0 0 1.265 1.88 5.9 5.9 0 0 0 1.881 1.275c.72.31 1.491.466 2.312.466z" fill="#000" fill-rule="evenodd"/></svg>
